public/images/arrow-small.svg

<svg width="12" height="12" viewBox="0 0 12 12" fill="none" xmlns="http://www.w3.org/2000/svg">
<path d="M12 0.9V9.9C12 10.425 11.5881 10.8 11.1014 10.8C10.5772 10.8 10.2028 10.425 10.2028 9.9V3.075L1.55382 11.7375C1.36661 11.925 1.14197 12 0.917317 12C0.655226 12 0.430577 11.925 0.280811 11.7375C-0.0936037 11.4 -0.0936037 10.8375 0.280811 10.5L8.9298 1.8H2.11544C1.59126 1.8 1.21685 1.425 1.21685 0.9C1.21685 0.4125 1.59126 0 2.11544 0H11.1014C11.5881 0 12 0.4125 12 0.9Z" fill="#0A0E29"/>
</svg>

<svg fill="none" height="12" viewBox="0 0 12 12" width="12" xmlns="http://www.w3.org/2000/svg"><path d="m12 .9v9c0 .525-.4119.9-.8986.9-.5242 0-.8986-.375-.8986-.9v-6.825l-8.64898 8.6625c-.18721.1875-.41185.2625-.636503.2625-.262091 0-.48674-.075-.636506-.2625-.3744147-.3375-.3744147-.9 0-1.2375l8.648989-8.7h-6.81436c-.52418 0-.89859-.375-.89859-.9 0-.4875.37441-.9.89859-.9h8.98596c.4867 0 .8986.4125.8986.9z" fill="#0a0e29"/></svg>
